server/website/public/icons/base/meta.svg

<svg width="48" height="48" viewBox="0 0 48 48" fill="none" xmlns="http://www.w3.org/2000/svg">
<g clip-path="url(#clip0_1319_10315)">
<path d="M5.18361 29.1109C5.18361 30.9539 5.58589 32.3629 6.1117 33.2173C6.39189 33.7038 6.79539 34.1071 7.28119 34.3864C7.76698 34.6656 8.31777 34.8108 8.87759 34.8073C10.2297 34.8073 11.4665 34.4722 13.8502 31.1616C15.7598 28.5095 18.0099 24.7951 19.5255 22.4496L22.0894 18.4956C23.8705 15.7497 25.9286 12.6971 28.2956 10.6213C30.2235 8.9392 32.305 8.00098 34.3999 8.00098C37.917 8.00098 41.2671 10.0466 43.831 13.8833C46.6369 18.0852 48.004 23.3777 48.004 28.8395C48.004 32.0864 47.3664 34.4722 46.2814 36.357C45.2348 38.1798 43.185 40.001 39.7481 40.001V34.8073C42.6909 34.8073 43.4204 32.0931 43.4204 28.9869C43.4204 24.5606 42.3921 19.6483 40.127 16.1384C38.5195 13.6487 36.4364 12.1275 34.1445 12.1275C31.6657 12.1275 29.671 14.0039 27.4293 17.3497C26.2374 19.1273 25.0139 21.2935 23.6401 23.7379L22.1278 26.4186C19.0899 31.8251 18.3203 33.0565 16.8014 35.0887C14.144 38.6607 11.8705 40.001 8.87759 40.001C5.32716 40.001 3.08207 38.4579 1.69996 36.1325C0.556542 34.2376 -0.000976562 31.7513 -0.000976562 28.9183L5.18361 29.1109Z" fill="#0081FB"/>
<path d="M4.08691 14.2502C6.46388 10.5727 9.89412 8.00098 13.8285 8.00098C16.1069 8.00098 18.3721 8.67113 20.7374 10.6163C23.3246 12.7356 26.0788 16.2255 29.5224 21.9771L30.756 24.0412C33.7339 29.0205 35.4298 31.5805 36.4196 32.7901C37.6949 34.3415 38.5896 34.8006 39.7481 34.8006C42.6909 34.8006 43.4203 32.0864 43.4203 28.9802L47.994 28.8362C47.994 32.0831 47.3563 34.4688 46.2714 36.3536C45.2348 38.1798 43.185 40.001 39.7481 40.001C37.6115 40.001 35.7186 39.5352 33.6254 37.5532C32.0162 36.032 30.135 33.3296 28.6878 30.9002L24.3829 23.6827C22.223 20.0605 20.2416 17.3597 19.0948 16.1434C17.8596 14.8215 16.2755 13.2332 13.745 13.2332C11.6969 13.2332 9.95755 14.6757 8.50199 16.8822L4.08691 14.2502Z" fill="url(#paint0_linear_1319_10315)"/>
<path d="M13.745 13.2332C11.6969 13.2332 9.95757 14.6757 8.50201 16.8822C6.44387 20.0001 5.18361 24.6443 5.18361 29.1109C5.18361 30.9539 5.58589 32.3629 6.1117 33.2173L1.69161 36.1325C0.556542 34.2376 -0.000976562 31.7513 -0.000976562 28.9183C-0.000976562 23.7664 1.40784 18.3968 4.08694 14.2502C6.4639 10.5727 9.89414 8.00098 13.8285 8.00098L13.745 13.2332Z" fill="url(#paint1_linear_1319_10315)"/>
</g>
<defs>
<linearGradient id="paint0_linear_1319_10315" x1="10.4049" y1="23.1717" x2="43.456" y2="24.8348" gradientUnits="userSpaceOnUse">
<stop stop-color="#0064E1"/>
<stop offset="0.4" stop-color="#0064E1"/>
<stop offset="0.83" stop-color="#0073EE"/>
<stop offset="1" stop-color="#0082FB"/>
</linearGradient>
<linearGradient id="paint1_linear_1319_10315" x1="6.91292" y1="31.2889" x2="6.91292" y2="19.0586" gradientUnits="userSpaceOnUse">
<stop stop-color="#0082FB"/>
<stop offset="1" stop-color="#0064E0"/>
</linearGradient>
<clipPath id="clip0_1319_10315">
<rect width="48" height="32" fill="white" transform="translate(0 8)"/>
</clipPath>
</defs>
</svg>

<svg width="48" height="48" fill="none" xmlns="http://www.w3.org/2000/svg"><g clip-path="url(#prefix__clip0_1319_10315)"><path d="M5.184 29.11c0 1.844.402 3.253.928 4.107a3.177 3.177 0 002.766 1.59c1.352 0 2.588-.335 4.972-3.645 1.91-2.652 4.16-6.367 5.676-8.712l2.563-3.954c1.782-2.746 3.84-5.799 6.207-7.875 1.928-1.682 4.009-2.62 6.104-2.62 3.517 0 6.867 2.046 9.431 5.882 2.806 4.202 4.173 9.495 4.173 14.957 0 3.246-.638 5.632-1.723 7.517-1.046 1.823-3.096 3.644-6.533 3.644v-5.194c2.943 0 3.672-2.714 3.672-5.82 0-4.426-1.028-9.339-3.293-12.849-1.608-2.49-3.69-4.01-5.983-4.01-2.478 0-4.473 1.876-6.715 5.222-1.192 1.777-2.415 3.944-3.789 6.388l-1.512 2.68c-3.038 5.407-3.808 6.639-5.327 8.67-2.657 3.573-4.93 4.913-7.923 4.913-3.55 0-5.796-1.543-7.178-3.868C.557 34.237-.001 31.75-.001 28.918l5.185.193z" fill="#0081FB"/><path d="M4.087 14.25c2.377-3.677 5.807-6.249 9.742-6.249 2.278 0 4.543.67 6.908 2.615 2.588 2.12 5.342 5.61 8.785 11.361l1.234 2.064c2.978 4.98 4.674 7.54 5.664 8.75 1.275 1.55 2.17 2.01 3.328 2.01 2.943 0 3.672-2.715 3.672-5.82l4.574-.145c0 3.247-.638 5.633-1.723 7.518C45.235 38.18 43.185 40 39.748 40c-2.136 0-4.03-.466-6.123-2.448-1.609-1.521-3.49-4.223-4.937-6.653l-4.305-7.217c-2.16-3.622-4.141-6.323-5.288-7.54-1.235-1.322-2.82-2.91-5.35-2.91-2.048 0-3.787 1.443-5.243 3.65L4.087 14.25z" fill="url(#prefix__paint0_linear_1319_10315)"/><path d="M13.745 13.233c-2.048 0-3.787 1.443-5.243 3.65C6.444 20 5.184 24.643 5.184 29.11c0 1.843.402 3.252.928 4.106l-4.42 2.916C.557 34.237-.001 31.75-.001 28.918c0-5.152 1.409-10.521 4.088-14.668 2.377-3.677 5.807-6.249 9.742-6.249l-.084 5.232z" fill="url(#prefix__paint1_linear_1319_10315)"/></g><defs><linearGradient id="prefix__paint0_linear_1319_10315" x1="10.405" y1="23.172" x2="43.456" y2="24.835" gradientUnits="userSpaceOnUse"><stop stop-color="#0064E1"/><stop offset=".4" stop-color="#0064E1"/><stop offset=".83" stop-color="#0073EE"/><stop offset="1" stop-color="#0082FB"/></linearGradient><linearGradient id="prefix__paint1_linear_1319_10315" x1="6.913" y1="31.289" x2="6.913" y2="19.059" gradientUnits="userSpaceOnUse"><stop stop-color="#0082FB"/><stop offset="1" stop-color="#0064E0"/></linearGradient><clipPath id="prefix__clip0_1319_10315"><path fill="#fff" transform="translate(0 8)" d="M0 0h48v32H0z"/></clipPath></defs></svg>
